X: 1
T: Greig's Pipes
M: 4/4
L: 1/8
R: reel
K: Gmaj
|: ~B2BA BAGA | B2GB AGEG |1 ~B2BA BAGB |
cABG AGEG :|2 Bd~d2 eBdB | AcBG AGEG ||
| DG~G2 DGBG | DGBG AGEG | DGGF GABc | d2BG ABGE |
AG~G2 AGBG | DGBG AGEG | DGGF GABc | dBAc BG~G2 ||
|:d2 (3Bcd edge | dGBG AGEG |
d2 (3Bcd eg~g2 |1 agbg ageg :|2 agab aged ||
